!!!OTL: The Ploughman
!!!id: HA010
**kern
*clefF4
*k[f#c#]
*D:
*M2/2
{8d
=1
8f#
8a
8.a
16b
8a
8f#
8.e}
{16d
=2
8f#
8a
8a
16b
16cc#
4dd
8.a}
{16dd
=3
8.b
16a
8b
8dd
8ee
16ff#
8.e}
{8d
=4
8f#
8a
8.a
16b
8a
8f#
8.e}
{16d
=5
8f#
8a
8a
16b
16cc#
4dd
8.a}
{16a
=6
8.b
16a
8b
8dd
8ee
8ff#
8.e}
{16d
=7
8f#
8a
8.a
16b
4a
8d}
==
*-
!!!minrhy: 16
!!!meter: 2/2
!!!cut: The Ploughman
!!!key: HA010  16  D 2/2
!!!fog: a--aw-b--c--a--aw--bv-c--
!!!bem: ein Vorschlag weggelassen
!! Haydn: Volksliedbearbeitungen, Bd1
